packages/kaspersky-hexa-ui-icons/src/iconsSVGs/24/Desktop.svg

<svg xmlns="http://www.w3.org/2000/svg" width="24" height="24" fill="none" viewBox="0 0 24 24"><path fill="#000" fill-rule="evenodd" d="M6 3C4.3431 3 3 4.3431 3 6v8c0 1.6569 1.3431 3 3 3h3v2H8c-.5523 0-1 .4477-1 1s.4477 1 1 1h8c.5523 0 1-.4477 1-1s-.4477-1-1-1h-1v-2h3c1.6569 0 3-1.3431 3-3V6c0-1.6569-1.3431-3-3-3zm7 14v2h-2v-2zm5-2c.5523 0 1-.4477 1-1V6c0-.5523-.4477-1-1-1H6c-.5523 0-1 .4477-1 1v8c0 .5523.4477 1 1 1z"/></svg>

<svg width="24" height="24" viewBox="0 0 24 24" fill="none" xmlns="http://www.w3.org/2000/svg">
<path fill-rule="evenodd" clip-rule="evenodd" d="M6 3C4.34315 3 3 4.34315 3 6V14C3 15.6569 4.34315 17 6 17H9V19H8C7.44772 19 7 19.4477 7 20C7 20.5523 7.44772 21 8 21H16C16.5523 21 17 20.5523 17 20C17 19.4477 16.5523 19 16 19H15V17H18C19.6569 17 21 15.6569 21 14V6C21 4.34315 19.6569 3 18 3H6ZM13 17V19H11V17H13ZM18 15C18.5523 15 19 14.5523 19 14V6C19 5.44772 18.5523 5 18 5H6C5.44772 5 5 5.44772 5 6V14C5 14.5523 5.44772 15 6 15H18Z" fill="black"/>
</svg>
